src/images/icon-stopwatch.svg

<svg width="35" height="43" viewBox="0 0 35 43" fill="none" xmlns="http://www.w3.org/2000/svg">
<g clip-path="url(#clip0)">
<path d="M17.1475 17.5V19.9664" stroke="#999999" stroke-width="1.44" stroke-miterlimit="22.9256" stroke-linecap="round" stroke-linejoin="round"/>
<path d="M17.1475 30.6543V33.1207" stroke="#999999" stroke-width="1.44" stroke-miterlimit="22.9256" stroke-linecap="round" stroke-linejoin="round"/>
<path d="M20.7889 21.2585C19.6144 20.9061 18.6748 20.5538 17.6177 20.4363C12.0976 19.8491 11.3929 25.3692 17.2654 25.3692C23.0204 25.3692 22.4332 30.8893 16.913 30.3021C15.856 30.1846 14.9164 29.8323 13.7419 29.4799" stroke="#999999" stroke-width="1.44" stroke-miterlimit="22.9256" stroke-linecap="round" stroke-linejoin="round"/>
<path d="M17.1478 8.92627C26.1914 8.92627 33.4733 16.2081 33.4733 25.2518C33.4733 34.2954 26.1914 41.5773 17.1478 41.5773C8.2216 41.6947 0.822266 34.2954 0.822266 25.3692C0.822266 16.3256 8.2216 8.92627 17.1478 8.92627Z" stroke="#999999" stroke-width="1.44" stroke-miterlimit="22.9256" stroke-linecap="round" stroke-linejoin="round"/>
<path d="M15.2686 8.9261V5.28516" stroke="#999999" stroke-width="1.44" stroke-miterlimit="22.9256" stroke-linecap="round" stroke-linejoin="round"/>
<path d="M19.1445 5.28516V8.9261" stroke="#999999" stroke-width="1.44" stroke-miterlimit="22.9256" stroke-linecap="round" stroke-linejoin="round"/>
<path d="M27.7178 12.4496L31.8285 8.33887L34.1775 10.6879L30.0668 14.7986" stroke="#999999" stroke-width="1.44" stroke-miterlimit="22.9256" stroke-linecap="round" stroke-linejoin="round"/>
<path d="M12.9195 0.822021H21.4934C21.8457 0.822021 22.1981 1.17437 22.1981 1.52672V3.99316C22.1981 4.34551 21.8457 4.69786 21.4934 4.69786H12.9195C12.5672 4.69786 12.2148 4.34551 12.2148 3.99316V1.52672C12.2148 1.17437 12.5672 0.822021 12.9195 0.822021Z" stroke="#999999" stroke-width="1.44" stroke-miterlimit="22.9256" stroke-linecap="round" stroke-linejoin="round"/>
<path d="M17.1473 12.3323C24.3117 12.3323 30.1842 18.2048 30.1842 25.3692C30.1842 32.5336 24.3117 38.4061 17.1473 38.4061C9.98284 38.4061 4.11035 32.5336 4.11035 25.3692C4.2278 18.0873 9.98284 12.3323 17.1473 12.3323Z" stroke="#999999" stroke-width="1.44" stroke-miterlimit="22.9256" stroke-linecap="round" stroke-linejoin="round"/>
</g>
<defs>
<clipPath id="clip0">
<rect width="35" height="42.5168" fill="white"/>
</clipPath>
</defs>
</svg>

<?xml version="1.0" encoding="utf-8"?>
<!-- Generator: Adobe Illustrator 24.1.0, SVG Export Plug-In . SVG Version: 6.00 Build 0)  -->
<svg version="1.1" id="Layer_1" xmlns="http://www.w3.org/2000/svg" xmlns:xlink="http://www.w3.org/1999/xlink" x="0px" y="0px"
	 viewBox="0 0 35 43" style="enable-background:new 0 0 35 43;" xml:space="preserve">
<style type="text/css">
	.st0{clip-path:url(#SVGID_2_);}
	.st1{fill:none;stroke:#FFFFFF;stroke-width:1.44;stroke-linecap:round;stroke-linejoin:round;stroke-miterlimit:22.9256;}
</style>
<g>
	<defs>
		<rect id="SVGID_1_" width="35" height="42.5"/>
	</defs>
	<clipPath id="SVGID_2_">
		<use xlink:href="#SVGID_1_"  style="overflow:visible;"/>
	</clipPath>
	<g class="st0">
		<path class="st1" d="M17.1,17.5V20"/>
		<path class="st1" d="M17.1,30.7v2.5"/>
		<path class="st1" d="M20.8,21.3c-1.2-0.4-2.1-0.7-3.2-0.8c-5.5-0.6-6.2,4.9-0.4,4.9c5.8,0,5.2,5.5-0.4,4.9c-1.1-0.1-2-0.5-3.2-0.8
			"/>
		<path class="st1" d="M17.1,8.9c9,0,16.3,7.3,16.3,16.3c0,9-7.3,16.3-16.3,16.3C8.2,41.7,0.8,34.3,0.8,25.4
			C0.8,16.3,8.2,8.9,17.1,8.9z"/>
		<path class="st1" d="M15.3,8.9V5.3"/>
		<path class="st1" d="M19.1,5.3v3.6"/>
		<path class="st1" d="M27.7,12.4l4.1-4.1l2.3,2.3l-4.1,4.1"/>
		<path class="st1" d="M12.9,0.8h8.6c0.4,0,0.7,0.4,0.7,0.7V4c0,0.4-0.4,0.7-0.7,0.7h-8.6c-0.4,0-0.7-0.4-0.7-0.7V1.5
			C12.2,1.2,12.6,0.8,12.9,0.8z"/>
		<path class="st1" d="M17.1,12.3c7.2,0,13,5.9,13,13s-5.9,13-13,13c-7.2,0-13-5.9-13-13C4.2,18.1,10,12.3,17.1,12.3z"/>
	</g>
</g>
</svg>
